X:1
T:Come, Oh, Come Home
T:James Ramsey Murray
T:Come, Oh, Come Home
T:Public Domain
T:Public Domain
T:Public Domain
C:James Ramsey Murray
Z:Public Domain
%%score ( 1 2 ) 3
L:1/8
M:4/4
K:Eb
V:1 treble 
V:2 treble 
V:3 bass 
V:1
 [EB]3 [EB] [DA]2 [EG]2 | [EG]2 [DF]2 [DF]4 | [FA]4 [EG]2 [DF]2 | ([EG]4 [GB]2) z2 | %4
w: 1.~Sin- ner, list to|Je- sus’ call:|“Come, oh, come|home”; *|
w: 2.~He is e- ver|at thy side,|Come, oh, come|home; *|
w: 3.~Look to Je- sus|now for aid,|Come, oh, come|home; *|
 [EB]3 [EB] [DA]2 [EG]2 | [EG]2 [DF]2 [DF]4 | [DF]4 [Ec]2 [E=A]2 | [DB]6 z2 | %8
w: Off- ’ring par- don|now to all—|Come, oh, come|home.|
w: Yield thy heart, and|He will guide,|Come, oh, come|home.|
w: Bear the bur- den|on thee laid,|Come, oh, come|home.|
 [FA]3 [FA] [DF]2 [DF]2 | [EG]2 [FA]2 [Ac]2 [GB]2 | [FA]3 [FA] [DF]2 [DF]2 | %11
w: Thou art sick— He|of- fers heal- ing.|Thou art blind— He|
w: Where thy fal- tering|steps are tread- ing,|There the saints of|
w: Fol- low Christ, who,|meek- ly bend- ing,|Bore thy cross up|
 [EG]2 [FA]2 ([Ac]2 [GB]2) | [Ge]3 [Ge] [Bd]2 [Ac]2 | [GB]2 E2 [EA]2 [EG]2 | [EF]2 [Ec]2 [EB]2 E2 | %15
w: gives the sight; *|Trust His word, and|round thee steal- ing|will come the prom-|
w: old have trod, *|’Tis con- tri- tion’s|maz- es thread- ing|the sin- ner up|
w: Cal- va- ry, *|By the love, all|love trans- cend- ing|will now thy re-|
 [DF]3 [DG] E4 ||"^Refrain" A2 A2 A2 A2 | G2 G2 E2 E2 | [DF]2 [DB]2 [Dc]2 [DB]2 | %19
w: light. * *||||
w: God. Come, O|ner, hear Him call-|ing now so ten-|Of- fering par- don|
w: be. * *||||
 [DB]2 [DF]2 ([EG]2 [GB]2) | A2 A2 A2 A2 | G2 G2 [Ac]4 | [GB]2 [Ge]2 [EG]2 [DF]2 | E6 |] %24
w: |||||
w: now to all, *|Come to Je- sus||||
w: |||||
V:2
 x8 | x8 | x8 | x8 | x8 | x8 | x8 | x8 | x8 | x8 | x8 | x8 | x8 | x2 E2 x4 | x6 E2 | x4 E4 || %16
w: |||||||||||||Soon|ised||
w: |||||||||||||Leads|to|sin-|
w: |||||||||||||He|fuge||
 c4 e4 | B4 G4 | x8 | x8 | c4 e4 | B4 x4 | x8 | E6 |] %24
w: ||||||||
w: ing, Call-|der- ly,|||now. *||||
w: ||||||||
V:3
 [E,G,]3 [G,B,] [F,B,]2 [E,B,]2 | [B,,B,]2 [B,,B,]2 [B,,B,]4 | [B,,B,]4 [B,,B,]2 [B,,B,]2 | %3
 [E,B,]6 z2 | [E,G,]3 [G,B,] [F,B,]2 [E,B,]2 | [B,,B,]2 [B,,B,]2 [B,,B,]4 | %6
 [F,B,]4 [F,=A,]2 [F,C]2 | [B,,B,]6 z2 | B,,8 | E,8 | B,,8 | E,8 | [C,C]3 [C,C] [A,,E]2 [C,E]2 | %13
 [E,E]2 [E,G,]2 [E,C]2 [E,B,]2 | [A,,E]2 [A,,A,]2 [B,,G,]2 [B,,G,]2 | [B,,A,]3 [B,,B,] [E,G,]4 || %16
 [A,E]2 [A,E]2 [A,C]2 [A,C]2 | [E,E]2 [E,E]2 [E,B,]2 [E,B,]2 | %18
 [B,,B,]2 [B,,B,]2 [B,,A,]2 [B,,A,]2 | [B,,A,]2 [A,B,]2 ([G,B,]2 [E,E]2) | %20
 [A,E]2 [A,E]2 [A,C]2 [A,C]2 | [E,E]2 [E,E]2 [A,,E]4 | [B,,E]2 [B,,B,]2 [B,,B,]2 [B,,A,]2 | %23
 [E,G,]6 |] %24

